!!!COM: Palestrina, Giovanni Perluigi da
!!!OPR: Missa Spem In Alium
!!!OMD: Sanctus
!!!OTL: First Section
**kern	**kern	**kern	**kern
*Ibass	*Itenor	*Icalto	*Icant
!Bassus	!Tenor	!Altus	!Cantus
*clefF4	*clefGv2	*clefG2	*clefG2
*k[]	*k[]	*k[]	*k[]
*A:aeo	*A:aeo	*A:aeo	*A:aeo
*M4/2	*M4/2	*M4/2	*M4/2
=1	=1	=1	=1
0A	0r	0r	0r
=2	=2	=2	=2
1G	0r	0r	0r
[1c	.	.	.
=3	=3	=3	=3
2c]	0e	0r	0r
2B	.	.	.
[1A	.	.	.
=4	=4	=4	=4
1A]	1c	[0a	0r
[1d	[1f	.	.
=5	=5	=5	=5
2d]	2f]	1a]	0r
2c	2e	.	.
1B	1d	1g	.
=6	=6	=6	=6
[0A	1e	1.cc	0ee
.	[1a	.	.
.	.	2b	.
=7	=7	=7	=7
1A]	2a]	[0a	1cc
.	2g	.	.
[1D	2f	.	[1ff
.	2e	.	.
=8	=8	=8	=8
1D]	1d	1a]	2ff]
.	.	.	2ee
1r	[1g	[1b-	[1dd
=9	=9	=9	=9
0r	2g]	2b-]	1dd]
.	2f	2a	.
.	2e	1g	[1ee
.	2c	.	.
=10	=10	=10	=10
0r	1d	1f	2ee]
.	.	.	2dd
.	1A	2e	1cc
.	.	[2a	.
=11	=11	=11	=11
1r	0e	2a]	1b
.	.	2g	.
[1A	.	2.cc	2a
.	.	.	[2ee
.	.	4b	.
=12	=12	=12	=12
1A]	1c	0a	2ee]
.	.	.	1cc
1F	2.f	.	.
.	.	.	[2ff
.	4e	.	.
=13	=13	=13	=13
2.B-	0d	1f	4ff]
.	.	.	4ee
.	.	.	1dd
4A	.	.	.
[1G	.	[1g	.
.	.	.	2cc
=14	=14	=14	=14
1G]	1.e	1g]	1b
[1A	.	1e	[1a
.	2d	.	.
=15	=15	=15	=15
2A]	2c	1.a	2a]
2G	2B	.	2b
2F	2A	.	1cc
2E	2c	2g	.
=16	=16	=16	=16
1D	2.d	1f	2b
.	.	.	1a
.	4c	.	.
1E	1B	2e	.
.	.	[2e	2g#
=17	=17	=17	=17
2r	1A	2e]	[0a
1A	.	2e	.
.	2.c	2A	.
2A	.	2e	.
.	8d	.	.
.	8e	.	.
=18	=18	=18	=18
2D	2f	2d	1a]
1A	2e	1c	.
.	1e	.	1r
2G	.	2B	.
=19	=19	=19	=19
2.c	2r	2.A	0r
.	1e	.	.
4B	.	4B	.
2A	.	2c	.
2G	2e	2B	.
=20	=20	=20	=20
2F	2A	1c	0r
2E	1e	.	.
1F	.	2.A	.
.	2d	.	.
.	.	4B	.
=21	=21	=21	=21
0E	2.g	4c	2r
.	.	4d	.
.	.	4e	1ee
.	4f	4f	.
.	1e	1g	.
.	.	.	2ee
=22	=22	=22	=22
0r	2d	2f	2a
.	2c	2e	1ee
.	2.f	2r	.
.	.	[2a	2dd
.	4e	.	.
=23	=23	=23	=23
0r	2d	2a]	2.ff
.	2c	2a	.
.	.	.	4ee
.	2B	2d	2dd
.	2A	[2a	2cc
=24	=24	=24	=24
1r	1.e	2a]	1b
.	.	2g	.
[1A	.	2.cc	1a
.	2c	.	.
.	.	4b	.
=25	=25	=25	=25
2A]	2f	2.a	1cc
2A	2e	.	.
.	.	4g	.
2D	1d	2f	1dd
[2d	.	2f	.
=26	=26	=26	=26
2d]	2r	1e	1ee
2c	2a	.	.
2.f	2a	2r	1a
.	2d	[2a	.
4e	.	.	.
=27	=27	=27	=27
2d	2f	2a]	0r
2c	2e	2a	.
2B-	1f	2d	.
2A	.	[2a	.
=28	=28	=28	=28
1B-	1d	2a]	1r
.	.	2g	.
1A	2e	2.cc	2r
.	4A	.	[2ee
.	4B	4b	.
=29	=29	=29	=29
0r	4c	2a	2ee]
.	4d	.	.
.	2e	2g	2ee
.	2d	2f	2a
.	2c	2e	[2ee
=30	=30	=30	=30
1r	1d	1f	2ee]
.	.	.	2dd
2r	1c	1e	2.gg
[2c	.	.	.
.	.	.	4ff
=31	=31	=31	=31
2c]	1r	2c	2ee
2B	.	2d	2dd
2A	2r	1e	2cc
2G#	[2e	.	2b
=32	=32	=32	=32
1.A	2e]	2r	1.cc
.	2e	1e	.
.	2A	.	.
2G	[2e	2e	2b
=33	=33	=33	=33
1F	2e]	1A	1a
.	2d	.	.
[1E	2.g	2e	2r
.	.	2e	2b
.	4f	.	.
=34	=34	=34	=34
0E]	2e	2.g	2cc
.	2d	.	2b
.	.	4f	.
.	2c	2e	[1ee
.	2B	2d	.
=35	=35	=35	=35
0E	1.e	2c	2ee]
.	.	2B	2dd
.	.	[1e	2cc
.	2d	.	[2b
=36	=36	=36	=36
0E	1c	0e]	4b]
.	.	.	4a
.	.	.	1a
.	1B	.	.
.	.	.	2g#
=37	=37	=37	=37
0A	0A	0e	0a
*-	*-	*-	*-
!!!CDT: 1525/^1526/-1594/2/2
!!!OCY: Italia
!!!AGN: Mass (Parody)
!!!AST: renaissance, vocal
!!!ASW: Motet 1539 (Jacquet)
!!!PWK: Masses, Book 3
!!!RNB: Cadence finals: D
!!!YOR: Le Opere Complete, v. 6, p. 1
!!!YOO: Rome, Italy: Fratelli Scalera
!!!END: 1992//
!!!EED: John Miller
!!!YEC: Copyright 2000, John Miller
!!!YEN: United States of America
!!!YEM: Rights to all derivative electronic formats reserved.
!!!YEM: Refer to licensing agreement for further details.
!!!YEM: This file must be accompanied by the licensing agreement.
!!!YEM: A copy of the licensing agreement may be found at http://www.music-cog.ohio-state.edu/HumdrumDatabases/Palestrina/license.txt
!!!EMD: converted to Humdrum by Bret Aarden
